!!!!SEGMENT: pl-sa--575-a-ix-55--009_anonim--pollonaise.krn
!!!cenid: 18xx:623
!!!COM: Anonim
!!!COM-rismID:
!!!CDT:
!!!CNT:
!!!OTL: Pollonaise
!!!PDT:
!!!AGN: Secular; Polonaise
!!!SMS-siglum: PL-SA
!!!SMS-shelfmark: 575/A IX 55
!!!SMS-shelfwork: 009 W
!!!SMS-variant:
!!!SMS-altvar:
!!!NIFC-rismSourceID: 1001109843
!!!NIFC-islandoraID:
!!!URL-pdf-islandora:
!!!URL-scan: https://bc.bdsandomierz.pl/dlibra/publication/1381/edition/1349/content @EN{Scan on Cyfrowa Biblioteka Diecezjalna w Sandomierzu} @PL{Skany w portalu Cyfrowa Biblioteka Diecezjalna w Sandomierzu}
!!!ONB-nifc: Str. 4, s. 4-6
!!!AIN: 1 empty
!!!key:
**kern	**kern
*part1	*part1
*staff2	*staff1
*Iempty	*Ipiano
*	*I"Piano
*clefF4	*clefG2
*k[b-e-a-]	*k[b-e-a-]
*c:	*c:
*M3/4	*M3/4
*>[A,A,B,B,A,A,B,B,C,C,D,D,C,C,D,D]	*>[A,A,B,B,A,A,B,B,C,C,D,D,C,C,D,D]
=1	=1
*>A	*>A
*	*2\right
*tremolo	*
!!LO:TX:a:t=P:w źródle caudy nut po lewej, po prawej oraz na środku:problem
!LO:TX:a:t=P:problem=mixed beam	!
!	!LO:TX:a:Bi:t=Pollo&colon;:problem='Pollo&colon;' znajduje się po lewej stronie systemu
8C/L	16cc\LL
.	16ee-\J
8c\	8ee-\J
8C/	4.gg 4.ee-\
8c\	.
8C/	.
8c\J	8ff 8dd\
=2	=2
!LO:TX:a:t=P:problem=mixed beam	!
8C/L	8ffL 8dd\
8c\	8ee-J 8cc\
8C/	2ee- 2cc\
8c\	.
8C/	.
8c\J	.
=3	=3
!LO:TX:a:t=P:problem=mixed beam	!
8C/L	16dd\LL
.	16cc\J
8c\	8cc\J
8C/	4.ee- 4.g/
8c\	.
8C/	.
8c\J	8dd 8f/
*Xtremolo	*
=4	=4
!LO:TX:a:t=P:problem=mixed beam	!
8G\L	8ddL 8f/
8GG/J	8ccJ 8e-/
8C\L	2cc 2e-/
8G\	.
8E-\	.
8C\J	.
=5	=5
.	8qcc/
16GG\LL	8bn\
16D\	.
!LO:SIC:s=16BBn:v	!
16BB-\	4b\
16D\JJ	.
*rep	*
16GG\LL	.
16D\	.
!LO:SIC:s=16BBn:v	!
16BB-\	8g/
16D\JJ	.
*Xrep	*
*rep	*
16GG\LL	16ee-\LL
16D\	16dd\
!LO:SIC:s=16BBn:v	!
16BB-\	16cc\
16D\JJ	16bn\JJ
*Xrep	*
=6	=6
16C\LL	8cc\
16G\	.
16E-\	4cc\
16G\JJ	.
*rep	*
16C\LL	.
16G\	.
16E-\	8ee-\
16G\JJ	.
*Xrep	*
8E-\L	16gg\LL
.	16ee-\
8C\J	16dd\
.	16cc\JJ
=7	=7
.	8qcc/
16GG/LL	8bn\
16D/	.
!LO:SIC:s=16BBn:v	!
16BB-/	4b\
16D/JJ	.
*rep	*
16GG/LL	.
16D/	.
!LO:SIC:s=16BBn:v	!
16BB-/	8g/
16D/JJ	.
*Xrep	*
*rep	*
16GG/LL	16ee-\LL
16D/	16dd\
!LO:SIC:s=16BBn:v	!
16BB-/	16cc\
16D/JJ	16b\JJ
*Xrep	*
=8	=8
!LO:TX:a:t=P:problem=mixed beam	!
8C\L	16cc\LL
.	16ee-\
8F\	16dd\
.	16bn\JJ
.	8qdd/
8G\	2cc\
8GG/J	.
4C/	.
=9:|!|:	=9:|!|:
*>B	*>B
8r	8b- 8g 8e-/
8G 8BB-/	4b- 4g/
*tremolo	*
8G 8BB-/L	.
8G 8BB-/	16ccLL 16a-/
.	16b-JJ 16g/
8G 8BB-/	8.ee-\L
8G 8BB-/J	.
.	16g\Jk
*Xtremolo	*
=10	=10
4F 4BB-/	8.a-\L
.	16f\Jk
4F 4BB-/	8dL 8B-X/
.	8e- 8c/
4r	8f 8d/
.	8gJ 8e-/
=11	=11
8r	8a-X/
8F 8BB-/	4dd\
*tremolo	*
8F 8BB-/L	.
8F 8BB-/	16ee-\LL
.	16dd\JJ
8F 8BB-/	16ff\LL
.	16dd\
8F 8BB-/J	16b-\
.	16a-\JJ
*Xtremolo	*
=12	=12
4D 4BB-/	4a-\
4E- 4GG/	16g\LL
.	16b-\
.	16cc\
.	16dd\JJ
4r	16ee-\LL
.	16ff\
.	16gg\
.	16aa-\JJ
*clefG2	*
=13	=13
8gL 8e-/	4bb-\
8b-/J	.
*rep	*
.	8qaan/
8gL 8e-/	8bb-\L
8b-/J	16gg\L
.	16ee-\JJ
.	8qbb-/
*Xrep	*
8fL 8B-/	8aa-X\L
8a-/J	16ff\L
.	16dd\JJ
!!LO:LB:g=original
=14	=14
*tremolo	*
8g 8e-/L	8gg\L
8b-/	8bb-\J
8g 8e-/	16aan\LL
.	16bb-\
8b-/J	16gg\
.	16ee-\JJ
*Xtremolo	*
8fL 8B-/	16bb-\LL
!	!LO:SIC:s=16aa-:v
.	16aa\
8a-/J	16ff\
.	16dd\JJ
=15	=15
4g 4B-/	16ee-\LL
.	16b-\
.	16bb-\
.	16aa-\JJ
*clefF4	*
8r	8ee-\L
8G\	16b-\L
.	16bn\JJ
4A-\	8cc\L
.	8aa-\J
=16	=16
!	!LO:N:vis=4
8B-\	16gg\LL
.	16ee-\
8r	16dd\
.	16ff\JJ
4BB-/	4ff\
8E-\	8ee-\L
!	!LO:TX:b:Bi:t=Da Capo Pollon&colon;
8r	8dd\J
=17:|!	=17:|!
*>C	*>C
*clefF4	*clefG2
*k[]	*k[]
*M3/4	*M3/4
!	!LO:TX:a:Bi:t=Trio&colon; \n Maiore:problem:problem='Trio&colon; \n Maiore' znajduje się po lewej stronie systemu; dodatkowa klamra przed systemem
4C 4CC/	8.eeL 8.cc 8.g/
.	16ffJk 16dd/
4C 4CC/	8ggL 8ee\
.	8aaJ 8ff\
4C 4CC/	8ggL 8ee\
.	8aaJ 8ff\
=18	=18
!	!LO:TX:a:t=P:problem=w źródle ogonek dwudźwięku po lewej stronie
8r	8gg 8ee\
8C\L	4gg 4ee\
8E\	.
8C\	16ffLL 16dd\
.	16eeJJ 16cc\
8BB\	8ddL 8g\
8GG\J	8ffJ 8dd\
=19	=19
8r	8ee 8cc\
8C\L	4gg 4ee\
8E\	.
8C\J	16ffLL 16dd\
.	16eeJJ 16cc\
8GG/L	16dd\LL
.	16ff\
8C/J	16ee\
.	16aa\JJ
=20	=20
4E\	16gg\LL
.	16ee\
.	16ff\
.	16dd\JJ
.	8qdd/
!LO:TX:a:t=P:problem=mixed beam	!
8G\L	2cc\
8GG/J	.
4C/	.
!!LO:LB:g=original
=21:|!|:	=21:|!|:
*>D	*>D
!LO:TX:a:t=P:problem=mixed beam	!
!	!LO:SIC:n=3:s=4g:v
16GG/LL	4gg 4dd 4a/
16G\	.
16F#X\	.
16G\JJ	.
4GG/	8bL 8g\
.	8cc 8a\
4r	8dd 8b\
.	8eeJ 8cc\
=22	=22
*tremolo	*
!LO:TX:a:t=P:problem=mixed beam	!
8GG/L	16ff\LL
.	16gg\J
8G\	8gg\J
8GG/	8.aa\L
8G\	.
.	16ff\Jk
8GG/	4dd\
8G\J	.
=23	=23
!LO:TX:a:t=P:problem=mixed beam	!
8CC/L	16eeLL 16cc\
.	16ff\J
8C\	8ff\J
8CC/	8.gg\L
8C\	.
.	16ee\Jk
8CC/	4cc\
8C\J	.
*Xtremolo	*
=24	=24
!	!LO:N:vis=8
4c\	4ccc\L
!	!LO:N:vis=16
8A\L	8aa\
!	!LO:N:vis=16
16F#X\L	8ff#X\J
16D\JJ	.
4G\	4gg\
!	!LO:TX:b:Bi:t=Trio Da Capo
==	==
*-	*-
!!!system-decoration: {(s1,s2)}
!!!RDF**kern: > = above
!!!RDF**kern: < = below
!!!EED: Wojciech Jakubiak-Danek
!!!EEV: 2020-12-10
!!!ENC: Marcin Jachim
!!!END: 2020-06-19
